X: 122005
P: Same figure.
M: 2/4
L: 1/16
K: A
|:\
agae fafd | (cA)BG A4 :|
|:\
edce dcBd | cBAc BGE2 |\
uAGAc BGE2 | vAGAc B2e2 |\
edce dcBd | cBAc BGE2 |\
vagae fafd | cABG A4 :|


